resources/icons/mail.svg

<svg xmlns="http://www.w3.org/2000/svg" viewBox="0 0 512 512">
    <path d="M464 64c26.5 0 48 21.49 48 48 0 15.1-7.1 29.3-19.2 38.4L275.2 313.6a32.1 32.1 0 0 1-38.4 0L19.2 150.4C7.113 141.3 0 127.1 0 112c0-26.51 21.49-48 48-48h416zM217.6 339.2a63.9 63.9 0 0 0 76.8 0L512 176v208c0 35.3-28.7 64-64 64H64c-35.35 0-64-28.7-64-64V176l217.6 163.2z" />
</svg>

<svg class="icon icon-medium" xmlns="http://www.w3.org/2000/svg" viewBox="0 0 512 512">
    <!--! Font Awesome Pro 6.1.2 by @fontawesome - https://fontawesome.com License - https://fontawesome.com/license (Commercial License) Copyright 2022 Fonticons, Inc. -->
    <path d="M464 64C490.5 64 512 85.49 512 112C512 127.1 504.9 141.3 492.8 150.4L275.2 313.6C263.8 322.1 248.2 322.1 236.8 313.6L19.2 150.4C7.113 141.3 0 127.1 0 112C0 85.49 21.49 64 48 64H464zM217.6 339.2C240.4 356.3 271.6 356.3 294.4 339.2L512 176V384C512 419.3 483.3 448 448 448H64C28.65 448 0 419.3 0 384V176L217.6 339.2z" />
</svg>
